X:1
T:My Faith Looks Up to Thee
T:Text: Ray Palmer (1808-1887) Tune: Lowell Mason (1792-1872)
T:664 66 64 OLIVET www.hymnary.org/text/my_faith_looks_up_to_thee
T:My Faith Looks Up to Thee
T:This hymn is in the public domain.  You may freely use this score for personal and congregational worship.  If you reproduce the score, please credit Hymnary.org as the source. 
T:This hymn is in the public domain.  You may freely use this score for personal and congregational worship.  If you reproduce the score, please credit Hymnary.org as the source. 
Z:This hymn is in the public domain.  You may freely use this score for personal and congregational worship.  If you reproduce the score, please credit Hymnary.org as the source.
%%score ( 1 2 ) ( 3 4 )
L:1/8
M:4/4
K:D
V:1 treble nm="Piano" snm="Pno."
V:2 treble 
V:3 bass nm="Piano" snm="Pno."
V:4 bass 
V:1
 D4 [DF]2 [DA]2 | [EA]3 [CG] [DF]4 | [CE]4 [CE]2 [EG]2 | [EG]3 [DF] [CE]4 | [DF]4 [CE]2 [DB]2 | %5
w: 3~While life's dark|maze I tread,|and griefs a-|round me spread,|be thou my|
w: 1~My faith looks|up to thee,|thou Lamb of|Cal- va- ry,|Sa- vior di-|
w: 2~May thy rich|grace im- part|strength to my|fain- ting heart,|my zeal in-|
 [CA]8 | [DA]4 [DF]2 [DG]2 | [DA]3 [DB] [DA]4 | [DA]4 [DF]2 [DG]2 | [DA]3 [DB] [DA]4 | %10
w: guide;|bid dark- ness|turn to day,|wipe sor- row's|tears a- way,|
w: vine!|Now hear me|while I pray,|take all my|guilt a- way;|
w: spire;|as thou hast|died for me,|O may my|love to thee|
 [Dd]4 [Dc]2 [DB]2 | [DA]3 [CG] [DF]2 D2 | E4 [CA]4 | [DD]8 |] %14
w: nor let me|e- ver stray from|thee a-|side.|
w: O let me|from this day be|whol- ly|thine!|
w: pure, warm, and|change- less be, a|liv- ing|fire!|
V:2
 D4 x4 | x8 | x8 | x8 | x8 | x8 | x8 | x8 | x8 | x8 | x8 | x6 D2 | D4 x4 | x8 |] %14
V:3
 [D,F,]4 D,2 [D,F,]2 | [C,A,]3 [A,,A,] [D,A,]4 | [A,,A,]4 [A,,A,]2 [A,,A,]2 | %3
 [C,A,]3 [D,A,] [A,,A,]4 | [D,A,]4 [E,A,]2 [E,^G,]2 | [A,,A,]8 | [D,F,]4 D,2 E,2 | %7
 [D,F,]3 [D,G,] [D,F,]4 | [D,F,]4 D,2 E,2 | [D,F,]3 [D,G,] [D,F,]4 | (F,2 B,2) [D,A,]2 [D,G,]2 | %11
 [D,F,]3 [A,,E,] [B,,D,]2 [B,,F,]2 | [G,,B,]4 [A,,G,]4 | [D,F,]8 |] %14
V:4
 x4 D,2 x2 | x8 | x8 | x8 | x8 | x8 | x4 D,2 D,2 | x8 | x4 D,2 D,2 | x8 | D,4 x4 | x8 | x8 | x8 |] %14

